X: 31705
T: Passport Panic
R: reel
M: 4/4
K: Edorian
|:E2 DE GE E2|DEGA EBAG|E2 DE GE E2|BdAF GE E2|
DEED GE E2|DEGA EBAG|BdAF GE E2|DEGD E3 E:|
|:AEcE cdEd|dEGB A3 G|ABdA B2 E/G/B|AGED GE E2|
AEBE cEec|cBGB A3 G|ABdA B2 E/G/B|AGED GE E2:|
|:ABde de e2|eBdE cded|dEBE ^ABE(B|B)EGB AGEG|
ABde de e2|eBdE cde(d|d)EGB AGED|DEED E4:|

